rider/src/main/resources/resharper/UnityFileType/UsageAsmdef.svg

<svg width="16" height="16" viewBox="0 0 16 16" xmlns="http://www.w3.org/2000/svg">
  <path fill="#9aa7b0" d="M6 1a4 4 0 0 0-4 4v10h12V1H6Zm7 13H3V5a3 3 0 0 1 3-3h7v12Z"/>
  <path fill="#9aa7b0" d="M4 7v6h8V7H4Zm5 5H5V8h2v2h2v2Z"/>
</svg>

<svg xmlns="http://www.w3.org/2000/svg" width="16" height="16">
  <path d="M1,16V5A5.006,5.006,0,0,1,6,0h9V16Z" fill="#f4f4f4" fill-rule="evenodd"/>
  <path d="M6,1A4,4,0,0,0,2,5V15H14V1Z" fill="#323232" fill-rule="evenodd"/>
  <path d="M3,14V5A3,3,0,0,1,6,2h7V14Z" fill="#ebebeb" fill-rule="evenodd"/>
  <g>
    <path fill="#323232" d="M4 7H12V13H4z"/>
    <path fill="#ebebeb" d="M7 8 7 10 9 10 9 12 5 12 5 8 7 8z"/>
  </g>
</svg>
